rospo-newyear-dark/symbolic/apps/cheese-symbolic.svg

<svg height="16" width="16" xmlns="http://www.w3.org/2000/svg"><path d="m3 0c-2 0-2 2-2 2v12c0 2 2 2 2 2h5v-2h-5v-12h10v4h2v-4c0-2-2-2-2-2zm2 5c-.554 0-1 .45-1 1s .446 1 1 1 1-.45 1-1-.446-1-1-1zm6 0c-.553 0-1 .45-1 1h2c0-.55-.447-1-1-1zm1.5 2c-1.933 0-3.5 1.57-3.5 3.5s1.567 3.5 3.5 3.5 3.5-1.57 3.5-3.5-1.567-3.5-3.5-3.5zm0 2c .83 0 1.5.67 1.5 1.5s-.67 1.5-1.5 1.5-1.5-.67-1.5-1.5.67-1.5 1.5-1.5zm-7.3262.8301-.707.7089c.937.94 2.2072 1.461 3.5332 1.461v-1c-1.06 0-2.0772-.42-2.8262-1.1699zm4.8262 4.1699c-.312 1.23 0 2 0 2h5s .335-1 0-2c-.18.16-1.566 1-2.5 1s-2.139-.69-2.5-1z" fill="#d3dae3"/></svg>

<svg xmlns="http://www.w3.org/2000/svg" width="16" height="16" version="1.1">
 <path style="fill:#d3dae3" d="M 3 0 C 1 0 1 2 1 2 L 1 14 C 1 16 3 16 3 16 L 8 16 L 8 14 L 3 14 L 3 2 L 13 2 L 13 6 L 15 6 L 15 2 C 15 0 13 0 13 0 L 3 0 z M 5 5 C 4.446 5 4 5.45 4 6 C 4 6.55 4.446 7 5 7 C 5.554 7 6 6.55 6 6 C 6 5.45 5.554 5 5 5 z M 11 5 C 10.447 5 10 5.45 10 6 L 12 6 C 12 5.45 11.553 5 11 5 z M 12.5 7 C 10.567 7 9 8.57 9 10.5 C 9 12.43 10.567 14 12.5 14 C 14.433 14 16 12.43 16 10.5 C 16 8.57 14.433 7 12.5 7 z M 12.5 9 C 13.33 9 14 9.67 14 10.5 C 14 11.33 13.33 12 12.5 12 C 11.67 12 11 11.33 11 10.5 C 11 9.67 11.67 9 12.5 9 z M 5.1738 9.8301 L 4.4668 10.539 C 5.4038 11.479 6.674 12 8 12 L 8 11 C 6.94 11 5.9228 10.58 5.1738 9.8301 z M 10 14 C 9.688 15.23 10 16 10 16 L 15 16 C 15 16 15.335 15 15 14 C 14.82 14.16 13.434 15 12.5 15 C 11.566 15 10.361 14.31 10 14 z"/>
</svg>
